X:205
T: Green Cottage
S: "Johnny O'Leary of Sliabh Luachra" (#236)
Z: B.Black
L: 1/8
M: 2/4
Q: 270
R: polka
K: G
GA/G/ ED|B,E E>F|GE ED|GA B/c/B/A/|
GE F/E/D|B,E EG/A/|BA GF|E2 E2 :|
Be ef|eB c/B/A|B>e df|e2 e>f|
gf/g/ fe/f/|ed BA|BA/B/ E/F/G/A/|B2 B2 :|
